assets/svgs/clients/jebbit.svg

<svg height="94" viewBox="0 0 201 94" width="201" xmlns="http://www.w3.org/2000/svg"><path d="m12.05 23.5c0-.533336.1833315-.9833315.55-1.35s.816664-.55 1.35-.55.999998.1833315 1.4.55.6.816664.6 1.35v53.2c0 4.466689-1.099989 8.166652-3.3 11.1s-5.199981 4.933328-9 6c-.533336.133334-.899999.2-1.1.2-.533336 0-.9833315-.166665-1.35-.5s-.55-.733331-.55-1.2c0-.600003.166665-1.0499985.5-1.35s.766664-.516666 1.3-.65c3.066682-.733337 5.433325-2.2833215 7.1-4.65s2.5-5.349982 2.5-8.95zm1.9-16.4c-.866671 0-1.5833305-.299997-2.15-.9s-.85-1.333329-.85-2.2.2833305-1.6.85-2.2c.5666695-.600003 1.283329-.9 2.15-.9s1.599997.299997 2.2.9c.600003.6.9 1.333329.9 2.2s-.299997 1.599997-.9 2.2-1.333329.9-2.2.9zm17.6 40.5v8.6c0 4.00002 1.1499885 7.199988 3.45 9.6s5.44998 3.6 9.45 3.6c2.133344 0 4.19999-.2833305 6.2-.85 2-.5666695 3.966657-1.249996 5.9-2.05.400002-.133334.699999-.2.9-.2.466669 0 .899998.166665 1.3.5.4.333335.6.766664.6 1.3 0 .866671-.399996 1.466665-1.2 1.8-2.133344.933338-4.3499885 1.6833305-6.65 2.25s-4.649988.85-7.05.85c-5.066692 0-9.133318-1.533318-12.2-4.6s-4.6-7.133308-4.6-12.2v-17.8c0-5.066692 1.533318-9.133318 4.6-12.2s7.133308-4.6 12.2-4.6 9.133318 1.533318 12.2 4.6 4.6 7.133308 4.6 12.2v6c0 .933338-.299997 1.7-.9 2.3-.600003.600003-1.366662.9-2.3.9zm25.8-9.5c0-4.00002-1.1499885-7.1499885-3.45-9.45s-5.44998-3.45-9.45-3.45-7.1499885 1.1499885-9.45 3.45-3.45 5.44998-3.45 9.45v5.9h25.8zm48.7 18.1c0 5.066692-1.533318 9.133318-4.6 12.2s-7.133308 4.6-12.2 4.6c-2.533346 0-5.0166545-.1833315-7.45-.55s-4.816655-.983329-7.15-1.85c-1.466674-.533336-2.2-1.566659-2.2-3.1v-64.6c0-.533336.1833315-1 .55-1.4.3666685-.400002.816664-.6 1.35-.6s.999998.199998 1.4.6c.400002.4.6.866664.6 1.4v22.9c1.866676-1.33334 3.899989-2.366663 6.1-3.1s4.466655-1.1 6.8-1.1c5.066692 0 9.133318 1.533318 12.2 4.6s4.6 7.133308 4.6 12.2zm-3.9-18.1c0-4.00002-1.149989-7.1499885-3.45-9.45-2.3000115-2.3000115-5.44998-3.45-9.45-3.45-2.400012 0-4.7166555.433329-6.95 1.3s-4.216658 2.166658-5.95 3.9v37c4.200021 1.33334 8.499978 2 12.9 2 4.00002 0 7.1499885-1.1499885 9.45-3.45 2.300011-2.3000115 3.45-5.44998 3.45-9.45zm49.2 18.1c0 5.066692-1.533318 9.133318-4.6 12.2s-7.133308 4.6-12.2 4.6c-2.533346 0-5.016655-.1833315-7.45-.55-2.433346-.3666685-4.816655-.983329-7.15-1.85-1.466674-.533336-2.2-1.566659-2.2-3.1v-64.6c0-.533336.183331-1 .55-1.4.366668-.400002.816664-.6 1.35-.6s.999998.199998 1.4.6c.400002.4.6.866664.6 1.4v22.9c1.866676-1.33334 3.899989-2.366663 6.1-3.1s4.466655-1.1 6.8-1.1c5.066692 0 9.133318 1.533318 12.2 4.6s4.6 7.133308 4.6 12.2zm-3.9-18.1c0-4.00002-1.149989-7.1499885-3.45-9.45s-5.44998-3.45-9.45-3.45c-2.400012 0-4.716655.433329-6.95 1.3s-4.216658 2.166658-5.95 3.9v37c4.200021 1.33334 8.499978 2 12.9 2 4.00002 0 7.149989-1.1499885 9.45-3.45s3.45-5.44998 3.45-9.45zm16.7-14.6c0-.533336.199998-.9833315.6-1.35.4-.3666685.866664-.55 1.4-.55s.983331.1833315 1.35.55.55.816664.55 1.35v47.5c0 .533336-.183331.999998-.55 1.4s-.816664.6-1.35.6-1-.199998-1.4-.6c-.400002-.400002-.6-.866664-.6-1.4zm2-16.4c-.866671 0-1.6-.299997-2.2-.9-.600003-.600003-.9-1.333329-.9-2.2s.299997-1.6.9-2.2c.6-.600003 1.333329-.9 2.2-.9s1.58333.299997 2.15.9c.56667.6.85 1.333329.85 2.2s-.28333 1.599997-.85 2.2-1.283329.9-2.15.9zm16.4-4.2c0-.533336.183331-1 .55-1.4.366668-.400002.816664-.6 1.35-.6s.999998.199998 1.4.6c.400002.4.6.866664.6 1.4v19.7h12.9c1.266673 0 1.9.599994 1.9 1.8s-.633327 1.8-1.9 1.8h-12.9v34.1c0 2.800014.733326 5.0166585 2.2 6.65s3.299989 2.45 5.5 2.45c.866671 0 1.833328-.0833325 2.9-.25s1.866664-.25 2.4-.25c.466669 0 .883331.166665 1.25.5.366668.333335.55.766664.55 1.3 0 1.000005-.533328 1.599999-1.6 1.8-.933338.133334-1.849996.2499995-2.75.35-.900005.1000005-1.816662.15-2.75.15-3.400017 0-6.183323-1.1166555-8.35-3.35-2.166678-2.2333445-3.25-5.34998-3.25-9.35z" fill="#8e9ba0"/></svg>

<svg width="201px" height="94px" viewBox="0 0 201 94" version="1.1" xmlns="http://www.w3.org/2000/svg" xmlns:xlink="http://www.w3.org/1999/xlink">
  <g stroke="none" stroke-width="1" fill="#8e9ba0" fill-rule="evenodd">
    <path d="M12.05,23.5 C12.05,22.966664 12.2333315,22.5166685 12.6,22.15 C12.9666685,21.7833315 13.416664,21.6 13.95,21.6 C14.483336,21.6 14.949998,21.7833315 15.35,22.15 C15.750002,22.5166685 15.95,22.966664 15.95,23.5 L15.95,76.7 C15.95,81.166689 14.850011,84.866652 12.65,87.8 C10.449989,90.733348 7.450019,92.733328 3.65,93.8 C3.116664,93.933334 2.750001,94 2.55,94 C2.016664,94 1.5666685,93.833335 1.2,93.5 C0.8333315,93.166665 0.65,92.766669 0.65,92.3 C0.65,91.699997 0.816665,91.2500015 1.15,90.95 C1.483335,90.6499985 1.916664,90.433334 2.45,90.3 C5.516682,89.566663 7.883325,88.0166785 9.55,85.65 C11.216675,83.2833215 12.05,80.300018 12.05,76.7 L12.05,23.5 Z M13.95,7.1 C13.083329,7.1 12.3666695,6.800003 11.8,6.2 C11.2333305,5.599997 10.95,4.866671 10.95,4 C10.95,3.133329 11.2333305,2.4 11.8,1.8 C12.3666695,1.199997 13.083329,0.9 13.95,0.9 C14.816671,0.9 15.549997,1.199997 16.15,1.8 C16.750003,2.4 17.05,3.133329 17.05,4 C17.05,4.866671 16.750003,5.599997 16.15,6.2 C15.549997,6.800003 14.816671,7.1 13.95,7.1 Z M31.55,47.6 L31.55,56.2 C31.55,60.20002 32.6999885,63.399988 35,65.8 C37.3000115,68.200012 40.44998,69.4 44.45,69.4 C46.583344,69.4 48.64999,69.1166695 50.65,68.55 C52.65,67.9833305 54.616657,67.300004 56.55,66.5 C56.950002,66.366666 57.249999,66.3 57.45,66.3 C57.916669,66.3 58.349998,66.466665 58.75,66.8 C59.15,67.133335 59.35,67.566664 59.35,68.1 C59.35,68.966671 58.950004,69.566665 58.15,69.9 C56.016656,70.833338 53.8000115,71.5833305 51.5,72.15 C49.1999885,72.7166695 46.850012,73 44.45,73 C39.383308,73 35.316682,71.466682 32.25,68.4 C29.183318,65.333318 27.65,61.266692 27.65,56.2 L27.65,38.4 C27.65,33.333308 29.183318,29.266682 32.25,26.2 C35.316682,23.133318 39.383308,21.6 44.45,21.6 C49.516692,21.6 53.583318,23.133318 56.65,26.2 C59.716682,29.266682 61.25,33.333308 61.25,38.4 L61.25,44.4 C61.25,45.333338 60.950003,46.1 60.35,46.7 C59.749997,47.300003 58.983338,47.6 58.05,47.6 L31.55,47.6 Z M57.35,38.1 C57.35,34.09998 56.2000115,30.9500115 53.9,28.65 C51.5999885,26.3499885 48.45002,25.2 44.45,25.2 C40.44998,25.2 37.3000115,26.3499885 35,28.65 C32.6999885,30.9500115 31.55,34.09998 31.55,38.1 L31.55,44 L57.35,44 L57.35,38.1 Z M106.05,56.2 C106.05,61.266692 104.516682,65.333318 101.45,68.4 C98.383318,71.466682 94.316692,73 89.25,73 C86.716654,73 84.2333455,72.8166685 81.8,72.45 C79.3666545,72.0833315 76.983345,71.466671 74.65,70.6 C73.183326,70.066664 72.45,69.033341 72.45,67.5 L72.45,2.9 C72.45,2.366664 72.6333315,1.9 73,1.5 C73.3666685,1.099998 73.816664,0.9 74.35,0.9 C74.883336,0.9 75.349998,1.099998 75.75,1.5 C76.150002,1.9 76.35,2.366664 76.35,2.9 L76.35,25.8 C78.216676,24.46666 80.249989,23.433337 82.45,22.7 C84.650011,21.966663 86.916655,21.6 89.25,21.6 C94.316692,21.6 98.383318,23.133318 101.45,26.2 C104.516682,29.266682 106.05,33.333308 106.05,38.4 L106.05,56.2 Z M102.15,38.1 C102.15,34.09998 101.000011,30.9500115 98.7,28.65 C96.3999885,26.3499885 93.25002,25.2 89.25,25.2 C86.849988,25.2 84.5333445,25.633329 82.3,26.5 C80.0666555,27.366671 78.083342,28.666658 76.35,30.4 L76.35,67.4 C80.550021,68.73334 84.849978,69.4 89.25,69.4 C93.25002,69.4 96.3999885,68.2500115 98.7,65.95 C101.000011,63.6499885 102.15,60.50002 102.15,56.5 L102.15,38.1 Z M151.35,56.2 C151.35,61.266692 149.816682,65.333318 146.75,68.4 C143.683318,71.466682 139.616692,73 134.55,73 C132.016654,73 129.533345,72.8166685 127.1,72.45 C124.666654,72.0833315 122.283345,71.466671 119.95,70.6 C118.483326,70.066664 117.75,69.033341 117.75,67.5 L117.75,2.9 C117.75,2.366664 117.933331,1.9 118.3,1.5 C118.666668,1.099998 119.116664,0.9 119.65,0.9 C120.183336,0.9 120.649998,1.099998 121.05,1.5 C121.450002,1.9 121.65,2.366664 121.65,2.9 L121.65,25.8 C123.516676,24.46666 125.549989,23.433337 127.75,22.7 C129.950011,21.966663 132.216655,21.6 134.55,21.6 C139.616692,21.6 143.683318,23.133318 146.75,26.2 C149.816682,29.266682 151.35,33.333308 151.35,38.4 L151.35,56.2 Z M147.45,38.1 C147.45,34.09998 146.300011,30.9500115 144,28.65 C141.699989,26.3499885 138.55002,25.2 134.55,25.2 C132.149988,25.2 129.833345,25.633329 127.6,26.5 C125.366655,27.366671 123.383342,28.666658 121.65,30.4 L121.65,67.4 C125.850021,68.73334 130.149978,69.4 134.55,69.4 C138.55002,69.4 141.699989,68.2500115 144,65.95 C146.300011,63.6499885 147.45,60.50002 147.45,56.5 L147.45,38.1 Z M164.15,23.5 C164.15,22.966664 164.349998,22.5166685 164.75,22.15 C165.15,21.7833315 165.616664,21.6 166.15,21.6 C166.683336,21.6 167.133331,21.7833315 167.5,22.15 C167.866669,22.5166685 168.05,22.966664 168.05,23.5 L168.05,71 C168.05,71.533336 167.866669,71.999998 167.5,72.4 C167.133331,72.800002 166.683336,73 166.15,73 C165.616664,73 165.15,72.800002 164.75,72.4 C164.349998,71.999998 164.15,71.533336 164.15,71 L164.15,23.5 Z M166.15,7.1 C165.283329,7.1 164.55,6.800003 163.95,6.2 C163.349997,5.599997 163.05,4.866671 163.05,4 C163.05,3.133329 163.349997,2.4 163.95,1.8 C164.55,1.199997 165.283329,0.9 166.15,0.9 C167.016671,0.9 167.73333,1.199997 168.3,1.8 C168.86667,2.4 169.15,3.133329 169.15,4 C169.15,4.866671 168.86667,5.599997 168.3,6.2 C167.73333,6.800003 167.016671,7.1 166.15,7.1 Z M182.55,2.9 C182.55,2.366664 182.733331,1.9 183.1,1.5 C183.466668,1.099998 183.916664,0.9 184.45,0.9 C184.983336,0.9 185.449998,1.099998 185.85,1.5 C186.250002,1.9 186.45,2.366664 186.45,2.9 L186.45,22.6 L199.35,22.6 C200.616673,22.6 201.25,23.199994 201.25,24.4 C201.25,25.600006 200.616673,26.2 199.35,26.2 L186.45,26.2 L186.45,60.3 C186.45,63.100014 187.183326,65.3166585 188.65,66.95 C190.116674,68.5833415 191.949989,69.4 194.15,69.4 C195.016671,69.4 195.983328,69.3166675 197.05,69.15 C198.116672,68.9833325 198.916664,68.9 199.45,68.9 C199.916669,68.9 200.333331,69.066665 200.7,69.4 C201.066668,69.733335 201.25,70.166664 201.25,70.7 C201.25,71.700005 200.716672,72.299999 199.65,72.5 C198.716662,72.633334 197.800004,72.7499995 196.9,72.85 C195.999995,72.9500005 195.083338,73 194.15,73 C190.749983,73 187.966677,71.8833445 185.8,69.65 C183.633322,67.4166555 182.55,64.30002 182.55,60.3 L182.55,2.9 Z" id="jebbit" fill="#8e9ba0" fill-rule="nonzero"></path>
  </g>
</svg>
